assets/icons/apple_icon.svg

<svg height="74" viewBox="0 0 74 74" width="74" xmlns="http://www.w3.org/2000/svg" xmlns:xlink="http://www.w3.org/1999/xlink"><filter id="a" filterUnits="userSpaceOnUse" height="74" width="74" x="0" y="0"><feOffset/><feGaussianBlur result="b" stdDeviation="4"/><feFlood flood-opacity=".161"/><feComposite in2="b" operator="in"/><feComposite in="SourceGraphic"/></filter><g filter="url(#a)"><path d="m59.591 16h-37.183a6.432 6.432 0 0 0 -6.408 6.408v37.183a6.432 6.432 0 0 0 6.408 6.409h37.183a6.432 6.432 0 0 0 6.409-6.408v-37.184a6.432 6.432 0 0 0 -6.409-6.408zm-16.9 10.838a7.313 7.313 0 0 1 4.832-2.524 7.445 7.445 0 0 1 -1.707 5.328 6.039 6.039 0 0 1 -4.864 2.365 7.1 7.1 0 0 1 1.742-5.169zm9.382 26.7c-1.364 2.035-2.783 4.06-5.016 4.1-2.195.041-2.9-1.322-5.414-1.322s-3.295 1.283-5.373 1.364c-2.156.085-3.8-2.194-5.174-4.221-2.383-3.5-4.289-9.459-3.074-14.3a10.084 10.084 0 0 1 1-2.516 8.008 8.008 0 0 1 6.778-4.184c2.117-.039 4.118 1.453 5.411 1.453s3.723-1.791 6.276-1.53a7.632 7.632 0 0 1 6 3.306 7.988 7.988 0 0 0 -2.753 3 7.059 7.059 0 0 0 -.787 3.357 7.342 7.342 0 0 0 4.4 6.749 18.58 18.58 0 0 1 -2.271 4.747z" fill="#1a1a1a" fill-rule="evenodd" transform="translate(-4 -4)"/></g></svg>

<svg xmlns="http://www.w3.org/2000/svg" xmlns:xlink="http://www.w3.org/1999/xlink" width="74" height="74" viewBox="0 0 74 74"><defs><style>.a{fill:#1a1a1a;fill-rule:evenodd;}.b{filter:url(#a);}</style><filter id="a" x="0" y="0" width="74" height="74" filterUnits="userSpaceOnUse"><feOffset input="SourceAlpha"/><feGaussianBlur stdDeviation="4" result="b"/><feFlood flood-opacity="0.161"/><feComposite operator="in" in2="b"/><feComposite in="SourceGraphic"/></filter></defs><g transform="translate(-4 -4)"><g class="b" transform="matrix(1, 0, 0, 1, 4, 4)"><path class="a" d="M59.591,16H22.408A6.432,6.432,0,0,0,16,22.408V59.591A6.432,6.432,0,0,0,22.408,66H59.591A6.432,6.432,0,0,0,66,59.592V22.408A6.432,6.432,0,0,0,59.591,16Zm-16.9,10.838a7.313,7.313,0,0,1,4.832-2.524,7.445,7.445,0,0,1-1.707,5.328,6.039,6.039,0,0,1-4.864,2.365A7.1,7.1,0,0,1,42.694,26.838Zm9.382,26.7c-1.364,2.035-2.783,4.06-5.016,4.1-2.195.041-2.9-1.322-5.414-1.322s-3.295,1.283-5.373,1.364c-2.156.085-3.8-2.194-5.174-4.221-2.383-3.5-4.289-9.459-3.074-14.3a10.084,10.084,0,0,1,1-2.516A8.008,8.008,0,0,1,35.8,32.459c2.117-.039,4.118,1.453,5.411,1.453s3.723-1.791,6.276-1.53a7.632,7.632,0,0,1,6,3.306,7.988,7.988,0,0,0-2.753,3,7.059,7.059,0,0,0-.787,3.357,7.342,7.342,0,0,0,4.4,6.749A18.58,18.58,0,0,1,52.076,53.541Z" transform="translate(-4 -4)"/></g></g></svg>
